X:1
T:Angel Island, 87.878
T:Angel Island, 87.878
T:Israel Brundage, before 1875
T:Public Domain Courtesy of the Cyber Hymnal™
C:Israel Brundage, before 1875
Z:Public Domain
Z:Courtesy of the Cyber Hymnal™
%%score 1 ( 2 3 )
L:1/8
Q:1/4=140
M:3/2
K:G
V:1 treble 
V:2 bass 
V:3 bass 
V:1
 [B,G]2 [CE]2 | [B,D]4 [DG]4 [DA]2 [DB]2 | [Dc]4 [DA]4 [DB]2 [Dc]2 | [Dd]4 [DB]4 [DA]2 [B,G]2 | %4
 [DA]8 [B,B]2 [CE]2 | [B,D]4 [DG]4 [DA]2 [DB]2 | [Dc]4 [DA]4 [DB]2 [Dc]2 | %7
 !fermata![Dd]2 [DB]2 [DG]4 [DA]4 | [DG]8 |] %9
V:2
 [G,,G,]2 [G,,G,]2 | [G,,G,]4 [B,,G,]4 [D,F,]2 [D,G,]2 | [D,A,]4 [D,F,]4 G,2 [G,A,]2 | %3
 [G,B,]4 G,4 [D,F,]2 E,2 | [D,F,]8 [G,,G,]2 [G,,G,]2 | [G,,G,]4 [B,,G,]4 [D,F,]2 [D,G,]2 | %6
 [D,A,]4 [D,F,]4 [G,,G,]2 [A,,F,]2 | !fermata![B,,G,]2 [G,,G,]2 [D,B,]4 [D,C]4 | [G,,B,]8 |] %9
V:3
 x4 | x12 | x8 G,2 x2 | x4 G,4 E,2 x2 | x12 | x12 | x12 | x12 | x8 |] %9

